projects/flag-game/flags/Sweden.svg

<?xml version="1.0" encoding="UTF-8"?>
<svg xmlns="http://www.w3.org/2000/svg" xmlns:xlink="http://www.w3.org/1999/xlink" viewBox="0 0 1000 625" version="1.1">
<g id="surface1145">
<rect x="0" y="0" width="1000" height="625" style="fill:rgb(0%,32.156372%,57.646179%);fill-opacity:1;stroke:none;"/>
<path style=" stroke:none;fill-rule:evenodd;fill:rgb(99.606323%,79.606628%,0%);fill-opacity:1;" d="M 312.5 0 L 437.5 0 L 437.5 625 L 312.5 625 Z M 312.5 0 "/>
<path style=" stroke:none;fill-rule:evenodd;fill:rgb(99.606323%,79.606628%,0%);fill-opacity:1;" d="M 0 250 L 1000 250 L 1000 375 L 0 375 Z M 0 250 "/>
</g>
</svg>

<svg viewBox="0 0 1000 625" xmlns="http://www.w3.org/2000/svg"><path d="m0 0h1000v625h-1000z" fill="#005293"/><g fill="#fecb00" fill-rule="evenodd"><path d="m312.5 0h125v625h-125zm0 0"/><path d="m0 250h1000v125h-1000zm0 0"/></g></svg>
